icons/14x14_timer_add_outline.svg

<svg width="14" height="14" viewBox="0 0 14 14" xmlns="http://www.w3.org/2000/svg">
<path d="M7 3C4.79137 3 3 4.79137 3 7C3 9.20935 4.79089 11 7 11V13C3.6868 13 1 10.3144 1 7C1 4.38804 2.66984 2.16538 5 1.34154V1C5 0.447715 5.44772 0 6 0H8C8.55228 0 9 0.447715 9 1V1.34137C11.3307 2.16508 13 4.38786 13 7H11C11 4.79089 9.20935 3 7 3Z"/>
<path d="M7 4C7.55228 4 8 4.44772 8 5V7C8 7.55228 7.55228 8 7 8C6.44772 8 6 7.55228 6 7V5C6 4.44772 6.44772 4 7 4Z"/>
<path d="M12 8V10H14V12H12V14H10V12H8V10H10V8H12Z"/>
</svg>

<svg width="14" height="14" fill="none" xmlns="http://www.w3.org/2000/svg"><path d="M7 3a4 4 0 0 0 0 8v2A6 6 0 0 1 5 1.342V1a1 1 0 0 1 1-1h2a1 1 0 0 1 1 1v.341c2.33.824 4 3.047 4 5.659h-2a4 4 0 0 0-4-4Z" fill="#000"/><path d="M7 4a1 1 0 0 1 1 1v2a1 1 0 0 1-2 0V5a1 1 0 0 1 1-1Zm5 4v2h2v2h-2v2h-2v-2H8v-2h2V8h2Z" fill="#000"/></svg>
